packages/icons/raw/imported/SoftwareCode.svg

<svg width="32" height="32" viewBox="0 0 32 32" fill="none" xmlns="http://www.w3.org/2000/svg">
<path d="M11.6834 11.1262C11.8806 10.9329 11.8837 10.6163 11.6903 10.4191C11.4969 10.222 11.1804 10.2189 10.9832 10.4123L11.6834 11.1262ZM7.42787 14.5996L7.07777 14.2426L7.42787 14.5996ZM10.9832 21.5878C11.1804 21.7811 11.4969 21.778 11.6903 21.5809C11.8836 21.3838 11.8806 21.0672 11.6834 20.8738L10.9832 21.5878ZM7.42787 17.4004L7.07777 17.7574H7.07777L7.42787 17.4004ZM21.1441 10.5371C20.947 10.3438 20.6304 10.3468 20.437 10.544C20.2437 10.7411 20.2468 11.0577 20.4439 11.2511L21.1441 10.5371ZM24.5721 14.5996L24.9222 14.2426L24.5721 14.5996ZM20.4439 20.7489C20.2468 20.9423 20.2437 21.2588 20.437 21.456C20.6304 21.6531 20.947 21.6562 21.1441 21.4628L20.4439 20.7489ZM24.5721 17.4004L24.9222 17.7574L24.5721 17.4004ZM18.8943 7.63236C18.9674 7.36607 18.8107 7.09094 18.5444 7.01784C18.2782 6.94474 18.003 7.10135 17.9299 7.36764L18.8943 7.63236ZM13.2633 24.3676C13.1902 24.6339 13.3468 24.9091 13.6131 24.9822C13.8794 25.0553 14.1545 24.8986 14.2276 24.6324L13.2633 24.3676ZM10.9832 10.4123L7.07777 14.2426L7.77798 14.9566L11.6834 11.1262L10.9832 10.4123ZM11.6834 20.8738L7.77798 17.0435L7.07777 17.7574L10.9832 21.5878L11.6834 20.8738ZM7.07777 14.2426C6.08931 15.2121 6.08931 16.788 7.07777 17.7574L7.77798 17.0435C7.18924 16.4661 7.18924 15.534 7.77798 14.9566L7.07777 14.2426ZM20.4439 11.2511L24.222 14.9565L24.9222 14.2426L21.1441 10.5371L20.4439 11.2511ZM21.1441 21.4628L24.9222 17.7574L24.222 17.0434L20.4439 20.7489L21.1441 21.4628ZM24.222 14.9565C24.8107 15.5339 24.8107 16.466 24.222 17.0434L24.9222 17.7574C25.9107 16.7879 25.9107 15.212 24.9222 14.2426L24.222 14.9565ZM17.9299 7.36764L13.2633 24.3676L14.2276 24.6324L18.8943 7.63236L17.9299 7.36764Z" fill="black"/>
</svg>

<svg width="32" height="32" fill="none" xmlns="http://www.w3.org/2000/svg"><path d="M11.683 11.126a.5.5 0 1 0-.7-.714l.7.714ZM7.428 14.6l-.35-.357.35.357Zm3.555 6.988a.5.5 0 0 0 .7-.714l-.7.714ZM7.428 17.4l-.35.357.35-.357Zm13.716-6.863a.5.5 0 0 0-.7.714l.7-.714Zm3.428 4.063.35-.357-.35.357Zm-4.128 6.149a.5.5 0 0 0 .7.714l-.7-.714Zm4.128-3.349.35.357-.35-.357Zm-5.678-9.768a.5.5 0 0 0-.964-.264l.964.264Zm-5.63 16.736a.5.5 0 0 0 .964.264l-.965-.264Zm-2.28-13.956-3.906 3.83.7.715 3.905-3.83-.7-.715Zm.7 10.462-3.906-3.83-.7.713 3.905 3.83.7-.713Zm-4.606-6.631a2.454 2.454 0 0 0 0 3.514l.7-.713a1.454 1.454 0 0 1 0-2.087l-.7-.714Zm13.366-2.992 3.778 3.706.7-.714-3.778-3.706-.7.714Zm.7 10.212 3.778-3.706-.7-.714-3.778 3.706.7.714Zm3.078-6.507c.589.578.589 1.51 0 2.087l.7.714a2.454 2.454 0 0 0 0-3.514l-.7.713ZM17.93 7.369l-4.667 17 .965.264 4.666-17-.964-.264Z" fill="#000"/></svg>
